svgs/duotone/pen-field.svg

<svg xmlns="http://www.w3.org/2000/svg" viewBox="0 0 640 512"><!--! Font Awesome Pro 6.0.0-alpha3 by @fontawesome - https://fontawesome.com License - https://fontawesome.com/license (Commercial License) --><defs><style>.fa-secondary{opacity:.4}</style></defs><path class="fa-primary" d="M128 288c-17.67 0-32 14.33-32 32s14.33 32 32 32s32-14.33 32-32S145.7 288 128 288zM639.1 69.79c0-11.26-4.295-22.52-12.89-31.11L601.3 12.89c-8.592-8.592-19.85-12.89-31.11-12.89S547.7 4.295 539.1 12.89L311.7 240.3c-3.072 3.072-5.164 6.984-6.016 11.24l-17.46 87.32c-.1486 .7434-.2188 1.471-.2188 2.191c0 6.012 4.924 10.94 10.94 10.94c.7197 0 1.449-.0707 2.192-.2194l87.33-17.46c4.258-.8516 8.168-2.945 11.24-6.016l227.4-227.4C635.7 92.31 639.1 81.05 639.1 69.79zM224 288c-17.67 0-32 14.33-32 32s14.33 32 32 32s32-14.33 32-32S241.7 288 224 288z"/><path class="fa-secondary" d="M511.1 326.6C511.1 326.6 511.1 326.6 511.1 326.6L511.1 448H63.1V192h228.1l63.1-64H63.1C28.66 128 0 156.7 0 192v256c0 35.35 28.66 64 63.1 64h447.1c35.34 0 63.1-28.65 63.1-63.1L576 219.9l-64 63.99L511.1 326.6z"/></svg>

<svg xmlns="http://www.w3.org/2000/svg" viewBox="0 0 640 512"><!-- Font Awesome Pro 6.0.0-alpha2 by @fontawesome - https://fontawesome.com License - https://fontawesome.com/license (Commercial License) --><defs><style>.fa-secondary{opacity:.4}</style></defs><path d="M512 326.578C512 326.596 511.99 326.609 511.99 326.627V448H63.998V192H292.115L356.111 128H63.998C28.654 128 0 156.652 0 192V448C0 483.346 28.654 512 63.998 512H511.99C547.334 512 575.988 483.346 575.988 448V384H576V219.889L512 283.883V326.578Z " class="fa-secondary"></path><path d="M128 288C110.326 288 96 302.326 96 320S110.326 352 128 352S160 337.674 160 320S145.674 288 128 288ZM640 69.787C640 58.527 635.704 47.267 627.113 38.676L601.324 12.887C592.732 4.295 581.472 -0.001 570.212 -0.001S547.691 4.295 539.1 12.887L311.691 240.305C308.619 243.377 306.527 247.289 305.676 251.547L288.219 338.834C288.07 339.577 287.999 340.312 287.999 341.032C287.999 347.044 292.953 351.997 298.964 351.997C299.684 351.997 300.419 351.926 301.162 351.777L388.453 334.318C392.711 333.467 396.621 331.373 399.691 328.303L627.109 100.904C635.703 92.312 640 81.049 640 69.787ZM224 288C206.326 288 192 302.326 192 320S206.326 352 224 352S256 337.674 256 320S241.674 288 224 288Z " class="fa-primary"></path></svg>
